public/img/clients/flixel.svg

<svg width="200" height="100" viewBox="0 0 200 100" fill="none" xmlns="http://www.w3.org/2000/svg">
<g clip-path="url(#clip0_2:151)">
<path fill-rule="evenodd" clip-rule="evenodd" d="M154.796 -0.455011C147.218 0.701989 130.496 5.83499 125.514 8.46999C124.856 8.56699 123.898 8.61599 122.65 8.61599C120.812 8.61599 119.336 8.55599 117.89 8.45899C114.88 8.25899 112.253 8.55399 109.583 9.84899C106.183 11.496 103.518 14.189 102.259 17.241C102.252 17.254 101.879 18.221 101.724 18.661C100.982 20.783 100.057 23.421 96.6819 25.968C95.0769 26.88 93.6119 28.038 92.2819 29.381L91.6959 29.633L90.9939 29.933L68.3379 39.715C68.8729 40.001 69.4119 40.285 69.9559 40.567L70.3919 40.791C70.8199 41.013 71.2499 41.233 71.6819 41.451L72.0739 41.651C73.2269 42.228 74.3939 42.796 75.5719 43.349L75.6719 43.395C76.2519 43.667 76.8319 43.935 77.4179 44.199C77.4519 44.215 78.8129 44.866 78.8479 44.879C83.3939 46.811 81.0029 45.859 83.1939 46.645C83.4609 46.741 82.6209 48.859 82.1479 51.051C81.3659 54.959 81.0079 58.661 81.0079 61.656C81.0079 66.326 82.8079 71.899 83.6739 74.606L83.6939 74.668L84.8839 77.018L90.4959 88.008C91.2429 84.608 91.4459 80.544 90.6729 75.343C93.1529 73.603 112.663 59.891 116.065 44.243C118.87 31.343 123.003 18.173 127.445 13.41L127.448 13.407C130.523 10.975 149.058 1.95699 155.012 0.753989C155.342 0.685989 155.559 0.370989 155.5 0.0419891C155.44 -0.288011 155.126 -0.508011 154.794 -0.458011L154.796 -0.455011ZM115.736 14.455C115.569 14.57 115.412 14.695 115.258 14.821C115.188 14.751 115.121 14.677 115.06 14.591C114.496 13.781 114.698 12.668 115.512 12.105C116.327 11.543 117.444 11.745 118.009 12.555C118.181 12.805 118.274 13.085 118.307 13.367C117.41 13.547 116.534 13.904 115.734 14.457L115.736 14.455Z" fill="black"/>
<path opacity="0.35" fill-rule="evenodd" clip-rule="evenodd" d="M90.995 29.935L91.697 29.635L50.877 29.089C54.021 31.227 57.532 33.491 61.317 35.744L90.995 29.934V29.935Z" fill="black"/>
<path opacity="0.45" fill-rule="evenodd" clip-rule="evenodd" d="M68.3399 39.717C65.9169 38.419 63.5679 37.087 61.3159 35.745L55.9919 36.791C58.6379 38.217 61.6239 39.723 64.8819 41.206L68.3389 39.718L68.3399 39.717Z" fill="black"/>
<path opacity="0.65" fill-rule="evenodd" clip-rule="evenodd" d="M61.316 35.7449C63.568 37.0849 65.916 38.4189 68.339 39.7169L90.994 29.9349L61.314 35.7449H61.316Z" fill="black"/>
<path opacity="0.25" fill-rule="evenodd" clip-rule="evenodd" d="M87.156 96.547L87.696 99.943C87.74 100.221 87.966 100.433 88.249 100.46C88.301 100.464 88.353 100.463 88.404 100.455C88.624 100.42 88.812 100.272 88.89 100.058C89.11 99.463 89.332 98.873 89.555 98.281C89.881 97.421 90.207 96.556 90.518 95.675L89.31 91.963C88.68 93.606 87.938 95.107 87.156 96.548V96.547Z" fill="black"/>
<path opacity="0.65" fill-rule="evenodd" clip-rule="evenodd" d="M83.6969 74.73V74.768L87.1569 96.548C87.9369 95.106 88.6799 93.605 89.3099 91.962L83.6969 74.732V74.73Z" fill="black"/>
<path opacity="0.45" fill-rule="evenodd" clip-rule="evenodd" d="M90.4979 88.012C90.1859 89.432 89.7799 90.737 89.3099 91.962L90.5179 95.674C91.0639 94.13 91.5619 92.531 91.9279 90.812L90.4979 88.012Z" fill="black"/>
<path opacity="0.8" fill-rule="evenodd" clip-rule="evenodd" d="M83.6969 74.73L89.3099 91.962C89.7799 90.737 90.1859 89.432 90.4979 88.012L83.6979 74.672V74.732L83.6969 74.73Z" fill="black"/>
<path fill-rule="evenodd" clip-rule="evenodd" d="M93.5099 50.193C93.4299 50.075 93.3269 49.999 93.1639 49.948C93.0009 49.898 91.9489 49.682 91.3169 49.49C83.3329 47.07 75.5069 43.55 68.3389 39.717L64.8789 41.205C73.0129 44.899 82.8289 48.433 93.2759 50.158C93.3559 50.171 93.4319 50.181 93.5099 50.193Z" fill="black"/>
<path opacity="0.65" fill-rule="evenodd" clip-rule="evenodd" d="M90.675 75.347C90.962 77.287 91.115 79.067 91.155 80.715V80.765L91.162 81.125V81.192C91.164 81.309 91.165 81.427 91.165 81.544V81.599C91.165 82.106 91.153 82.601 91.131 83.084V83.136L91.115 83.422L91.109 83.542C91.104 83.63 91.099 83.716 91.092 83.802C91.09 83.849 91.086 83.898 91.082 83.947C91.077 84.027 91.072 84.107 91.065 84.187L91.051 84.343L91.031 84.573L91.015 84.739L90.992 84.955C90.987 85.015 90.98 85.077 90.972 85.137C90.962 85.237 90.95 85.333 90.939 85.43C90.929 85.518 90.917 85.605 90.906 85.69L90.884 85.855L90.854 86.065L90.829 86.23L90.799 86.438C90.789 86.491 90.779 86.544 90.771 86.598L90.735 86.808C90.725 86.858 90.718 86.908 90.709 86.958L90.669 87.174C90.659 87.22 90.652 87.268 90.642 87.314C90.628 87.394 90.612 87.472 90.597 87.55L90.574 87.666L90.5 88.012L91.93 90.812C92.81 86.654 92.902 81.768 90.962 75.147L90.677 75.347H90.675Z" fill="black"/>
<path opacity="0.25" fill-rule="evenodd" clip-rule="evenodd" d="M50.8769 29.09L45.0269 29V29.01C44.7769 29.024 44.5569 29.19 44.5009 29.445C44.4509 29.675 44.5559 29.905 44.7429 30.028V30.03C46.7579 31.39 50.6929 33.93 55.9929 36.79L61.3169 35.745C57.5329 33.492 54.0219 31.228 50.8769 29.089V29.09Z" fill="black"/>
</g>
<defs>
<clipPath id="clip0_2:151">
<rect width="200" height="100" fill="white"/>
</clipPath>
</defs>
</svg>

<svg xmlns="http://www.w3.org/2000/svg" focusable="false" role="img" viewBox="0 0 200 100" fill="currentColor">
  <g fill-rule="evenodd" clip-path="url(#clip0_2:151)" clip-rule="evenodd">
    <path d="M154.796-.455c-7.578 1.157-24.3 6.29-29.282 8.925-.658.097-1.616.146-2.864.146-1.838 0-3.314-.06-4.76-.157-3.01-.2-5.637.095-8.307 1.39-3.4 1.647-6.065 4.34-7.324 7.392-.007.013-.38.98-.535 1.42-.742 2.122-1.667 4.76-5.042 7.307-1.605.912-3.07 2.07-4.4 3.413l-.586.252-.702.3-22.656 9.782c.535.286 1.074.57 1.618.852l.436.224c.428.222.858.442 1.29.66l.392.2c1.153.577 2.32 1.145 3.498 1.698l.1.046c.58.272 1.16.54 1.746.804.034.016 1.395.667 1.43.68 4.546 1.932 2.155.98 4.346 1.766.267.096-.573 2.214-1.046 4.406-.782 3.908-1.14 7.61-1.14 10.605 0 4.67 1.8 10.243 2.666 12.95l.02.062 1.19 2.35 5.612 10.99c.747-3.4.95-7.464.177-12.665 2.48-1.74 21.99-15.452 25.392-31.1 2.805-12.9 6.938-26.07 11.38-30.833l.003-.003c3.075-2.432 21.61-11.45 27.564-12.653a.618.618 0 00.488-.712.621.621 0 00-.706-.5l.002.003zm-39.06 14.91c-.167.115-.324.24-.478.366a1.782 1.782 0 01-.198-.23 1.783 1.783 0 01.452-2.486 1.8 1.8 0 012.497.45c.172.25.265.53.298.812a6.896 6.896 0 00-2.573 1.09l.002-.002z"/>
    <path d="M90.995 29.935l.702-.3-40.82-.546a206.144 206.144 0 0010.44 6.655l29.678-5.81v.001z" opacity=".35"/>
    <path d="M68.34 39.717a177.217 177.217 0 01-7.024-3.972l-5.324 1.046a148.257 148.257 0 008.89 4.415l3.457-1.488.001-.001z" opacity=".45"/>
    <path d="M61.316 35.745a179.72 179.72 0 007.023 3.972l22.655-9.782-29.68 5.81h.002z" opacity=".65"/>
    <path d="M87.156 96.547l.54 3.396a.616.616 0 00.708.512.617.617 0 00.486-.397c.22-.595.442-1.185.665-1.777.326-.86.652-1.725.963-2.606l-1.208-3.712c-.63 1.643-1.372 3.144-2.154 4.585v-.001z" opacity=".25"/>
    <path d="M83.697 74.73v.038l3.46 21.78c.78-1.442 1.523-2.943 2.153-4.586l-5.613-17.23v-.002z" opacity=".65"/>
    <path d="M90.498 88.012a27.357 27.357 0 01-1.188 3.95l1.208 3.712c.546-1.544 1.044-3.143 1.41-4.862l-1.43-2.8z" opacity=".45"/>
    <path d="M83.697 74.73l5.613 17.232c.47-1.225.876-2.53 1.188-3.95l-6.8-13.34v.06l-.001-.002z" opacity=".8"/>
    <path d="M93.51 50.193a.602.602 0 00-.346-.245c-.163-.05-1.215-.266-1.847-.458-7.984-2.42-15.81-5.94-22.978-9.773l-3.46 1.488c8.134 3.694 17.95 7.228 28.397 8.953.08.013.156.023.234.035z"/>
    <path d="M90.675 75.347c.287 1.94.44 3.72.48 5.368v.05l.007.36v.067c.002.117.003.235.003.352v.055c0 .507-.012 1.002-.034 1.485v.052l-.016.286-.006.12c-.005.088-.01.174-.017.26-.002.047-.006.096-.01.145-.005.08-.01.16-.017.24l-.014.156-.02.23-.016.166-.023.216c-.005.06-.012.122-.02.182-.01.1-.022.196-.033.293-.01.088-.022.175-.033.26l-.022.165-.03.21-.025.165-.03.208c-.01.053-.02.106-.028.16l-.036.21c-.01.05-.017.1-.026.15l-.04.216c-.01.046-.017.094-.027.14-.014.08-.03.158-.045.236l-.023.116-.074.346 1.43 2.8c.88-4.158.972-9.044-.968-15.665l-.285.2h-.002z" opacity=".65"/>
    <path d="M50.877 29.09l-5.85-.09v.01a.56.56 0 00-.526.435.56.56 0 00.242.583v.002c2.015 1.36 5.95 3.9 11.25 6.76l5.324-1.045a206.323 206.323 0 01-10.44-6.656v.001z" opacity=".25"/>
  </g>
  <defs>
    <clipPath id="clip0_2:151">
      <path d="M0 0h200v100H0z"/>
    </clipPath>
  </defs>
</svg>
